X:51
T:Father O'Flynn
T:Top of Cork Road, The
R:jig
Z:id:hn-jig-51
M:6/8
K:D
dAF DFA | ded cBA | dcd efg | fdf ecA |
dAF DFA | ded cBA | dcd efg |1 fdc d2A :|2 fdc d2e ||
|: ~f3 fga | ecA ABc | dcd Bed | cAA A2=c |
~B3 BAG | AFD DFA |1 dcd efg | fdc d2e :|2 dcd ede | fdf gfe ||
P:Variations:
|: dAF DFA | Bed cBA | Bcd ede | fed ecA |
dAF DFA | Bed cBA | Bcd ede |1 fdc d2A :|2 fdc d2e ||
|: fdf fga | ecA ABc | dcd Bed | cAA A2=c |
BGB Bcd | AFD DFA |1 dcd ede | fdc d2e :|2 dcd efg | fdf gfe ||
<end>
<start>
